X:1
T:Title
%%score [ ( 1 2 ) ( 3 4 ) ] { ( 5 6 ) | ( 7 8 ) }
L:1/8
Q:1/4=120
M:4/4
K:D
V:1 treble nm="Midi_74"
V:2 treble 
V:3 bass nm="Midi_74"
V:4 bass 
V:5 treble nm="Org."
V:6 treble 
V:7 bass 
V:8 bass 
V:1
 D8 | E4 F4 | G8 || F8 | (F2 E2) B4 | (B2 A2) G4 |{G} F8 || B8 | c4 d4 | e8 || d8 | (d2 c2) e4 | %12
"^William Henry Havergal\n(1793-1870)" (e2 d2) c4 | d8 |] %14
V:2
 D8 | C4 D4 | E8 || D8 | D4 G4 | E4 C4 | D8 || F8 | F4 F4 | F8 || F8 | G4 G4 | A4 G4 | F8 |] %14
V:3
 A,8 | G,4 F,4 | E,8 || A,8 | B,4 D4 | C4 A,4 | A,8 || B,8 | ^A,4 B,4 | C8 || D8 | E4 E4 | F4 E4 | %13
 D8 |] %14
V:4
 F,8 | E,4 D,4 | C,8 || D,8 | G,4 G,4 | A,4 A,,4 | D,8 || D,8 | C,4 B,,4 | ^A,,8 || B,,8 | %11
 E,4 E,4 | A,4 A,4 | D,8 |] %14
V:5
 D8 | [CE]4 [DF]4 | [A,G]8 || [A,F]8 | F2 E2 B4 | B2 A2 G4 |{G} F8 || B8 | [^Ac]4 [Bd]4 | [ce]8 || %10
 [Bd]8 | d2 c2 e4 | e2 d2 c4 | d8 |] %14
V:6
 [A,D]8 | A,8 | E8 || D8 | B,4 [DG]4 | [CE]4 [CE]4 | [A,D]8 || F8 | F8 | F8 || F8 | [EG]4 [EG]4 | %12
 [FA]4 [EG]4 | [DF]8 |] %14
V:7
 A,8 | G,4 F,4 | E,8 || x8 | x8 | x8 | x8 || x8 | x8 | x8 || x8 | x8 | x8 | x8 |] %14
V:8
 F,8 | E,4 D,4 | C,8 || D,8 | G,4 G,4 | A,4 A,,4 | D,8 || D,8 | C,4 B,,4 | ^A,,8 || B,,8 | %11
 E,4 E,4 | A,4 A,4 | D,8 |] %14

